X:50
T:Hebridean Waters
R:Waltz
C:Pete Mac 1998
O:England
S:https://pghardy.net/tunebooks/#petemac
F:https://pghardy.net/tunebooks/pgh_pete_mac_tunebook.abc
F:https://pghardy.net/tunebooks/pgh_pete_mac_tunebook.pdf
Z:Pete Mac Tunebook 2023 (see https://pghardy.net/tunebooks/).
Z:Creative Commons CC0 (Public Domain) licenced.
M:3/4
L:1/8
Q:1/4=155
K:C
GF|"C"E3 G c2|c4 ((3G^F=F)|E3 G c2|"Am"c4 cd|"C"e3 Gce|"Am"e3 Gce|"G7"g3 f ((3efe)|d4 ((3G^F=F)|
"C"E3 G c2|c4 ((3G^F=F)|E3 G c2|"F"a4 ((3aga)|"C"g3 ecG|"G7"d3 eGe|"C"c6-|c4 G2||
"C"e3 Gce|e3 Gce|g3 f ((3efe)|"G"d6|"G7"f3 GBd|f3 GBd|"F"a2 ((3gag) ((3fgf)|"C"e4 ED|
"C"C3 EGc|C3 EGc|"F"A3 FCA|"C"G4 "G7"((3GAB)|"C"c2 "G7"((3BcB) ((3ABA)|"C"G3 ECG,|"G7"G,2 E2 D2|"C"C4|]

% This tunebook contains tunes written or extended by Pete Mac, who wishes 
% them to be freely used. Pete says: "I play piano accordion, melodeon and 
% English Concertina. I ran a folk dance and barn dance band for 40 years, in 
% Cambridgeshire and then in Devon where I now live. % I wrote these tunes for 
% use in the bands, and am pleased if others play them. I still lead bands and 
% workshops occasionally, mostly in the Camping and Caravanning Club 'Folk 
% Group' which has been a lifetime involvement, and of which I am a founder 
% member."  
% The tunes (written between 1988 and 2006) are released under a Creative 
% Commons Zero licence - CC0 1.0. To view a copy of this license, visit 
% http://creativecommons.org/publicdomain/zero/1.0. 
% Through this licence, the author has dedicated the work to the public domain 
% by waiving all of his rights worldwide under copyright law, including all 
% related and neighboring rights, to the extent allowed by law.  
% You can copy, modify, distribute and perform these tunes, even for 
% commercial purposes, all without asking permission. 
% Editing, layout and publishing of this Tunebook and its ABC music is by Paul 
% Hardy (paul@paulhardy.net), who releases his assistance work under the same 
% CC0 1.0 licence. See https://pghardy.net/tunebooks/ for downloads of this 
% and more of Paul's tunebooks.
% Original tunebook of 19 October 2023. This version of 8 November 2023.